X:15754
T:Soun (3)
M:2/4
L:1/8
C:Stephane Rogowski
R:Bourree
Z:Steve Mansfield
K:C
(3fed |g2|g/ag/|f/e/ d/e/|(3fed |g2|(3fec |1de:|2f2|: (3fec|d> c/4d/4|(3
edc|A/c/ d/e/|(3fec|d2|(3gec|1de:|2f2||
